!!!COM: Beethoven, Ludwig van
!!!LYR: Aloys Jeitteles
!!!YEM: Copyright 2002 Recordare LLC
!!!OPS: Op. 98
!!!OPR: An die ferne Geliebte (Page 1)
!!!RDT: 2002/04/08/
**kern	**kern	**kern	**kern	**kern
!Voice	!Piano	!Piano	!Piano	!Piano
*clefG2	*clefG2	*clefG2	*clefG2	*clefG2
*k[b-e-a-]	*k[b-e-a-]	*k[b-e-a-]	*k[b-e-a-]	*k[b-e-a-]
*M3/4	*M3/4	*M3/4	*M3/4	*M3/4
=1-	=1-	=1-	=1-	=1-
!No. 1	!p	!	!	!
!Ziemlich langsam und mit Ausdruck	!	!	!	!
4r	4B-/ 4e-/ 4g/ 4b-/	4EE-/ 4E-/	4ryy	4ryy
*	*clefG2	*clefG2	*clefG2	*clefG2
4b-\	4b-\(	4g/(	4ryy	4ryy
4b-\	4a-/)	4f/)	4ryy	4ryy
=2	=2	=2	=2	=2
4.b-\	4g/	4e-/	4.ryy	4.ryy
*	*clefF4	*clefF4	*clefF4	*clefF4
.	4G/ 4e-/ 4g/	4EE-/ 4E-/	.	.
8cc\	.	.	8ryy	8ryy
8dd\L	4r	4r	8ryy	8ryy
8ee-\J	.	.	8ryy	8ryy
=3	=3	=3	=3	=3
4ee-\	4r	4r	4ryy	4ryy
8g/	4G/ 4c/ 4e-/ 4g/	4CC/ 4C/	8ryy	8ryy
8r	.	.	8ryy	8ryy
8a-/L	8r	8r	8ryy	8ryy
8g/J	8G/ 8e-/ 8g/	8BBB-/ 8BB-/	8ryy	8ryy
=4	=4	=4	=4	=4
8f/L	8f/L(	4AAA-/ 4AA-/	4c\	8ryy
8a-/J	8a-/J	.	.	8ryy
4cc\	4cc/)	4AAA-/( 4AA-/	4c\ 4f\	4ryy
4cc\	4cc/	4AAA/ 4AA/	4c\( 4e-\ 4f\[	4ryy
=5	=5	=5	=5	=5
4f/	4ryy	4BBB-/) 4BB-/	4d/) 4f/]	4ryy
4.b-\	4.b-/(	4D\(	4f\	4.ryy
.	.	4E-\	4g\	.
8cc\	8cc/	.	.	8ryy
=6	=6	=6	=6	=6
4b-\	4b-/	4C/	2e-\ 2g-\	2C\
4a/	4a/)	4c/)	.	.
8a-/L	8a-/L(	8ryy	4f\	4D\ 4B-\ 4d\
8b-/J	8b-/J)	8ryy	.	.
=7	=7	=7	=7	=7
4a-/	4f/( 4a-/	4B-/(	4ryy	2E-\
4g/	4g/)	4e-/)	4ryy	.
8ee-\L	8e-/L 8b-/ 8ee-/	8ryy	8ryy	4GG\ 4E-\ 4G\
8dd\J	8e-/J 8b-/ 8dd/	8ryy	8ryy	.
=8	=8	=8	=8	=8
4dd\(	4e-/( 4b-/ 4dd/	4AA-\ 4E-\ 4A-\	4ryy	4ryy
8cc\L)	8e-/L) 8a-/ 8cc/	8AA-/L 8E-/ 8A-/	8ryy	8ryy
8b-\J	8e-/ 8g/ 8b-/	8BB-/ 8E-/ 8B-/	8ryy	8ryy
8a-/L	8d/ 8f/ 8a-/	8BB-/ 8B-/	8ryy	8ryy
8f/J	8A-/J 8d/ 8f/	8BBB-/J 8BB-/	8ryy	8ryy
=9	=9	=9	=9	=9
4e-/	4G/ 4e-/	4EE-/ 4E-/	4ryy	4ryy
!	!Ausdrucksvoll	!	!	!
4r	4.bb-\)	2E-\ 2G\ 2B-\ 2e-\	4ryy	4ryy
4r	.	.	4ryy	4ryy
!	!espressivo	!	!	!
.	8ee-\	.	.	.
=10	=10	=10	=10	=10
2.r	4dd\	4E-\ 4F\ 4A-\ 4d\	2.ryy	2.ryy
.	4.bb-\)	4.E-\ 4.F\ 4.A-\ 4.B-\ 4.d\	.	.
!	!dim.	!	!	!
.	8dd\(	8d\(	.	.
=11	=11	=11	=11	=11
4r	8ff/L	8f\L	4ryy	4ryy
.	8f/) 8a-/	8F\) 8A-\	.	.
4b-\	8f/( 8a-/	8F\( 8A-\	4ryy	4ryy
.	8e/ 8g/	8E\ 8G\	.	.
4b-\	8g/ 8b-/	8G\ 8B-\	4ryy	4ryy
.	8f/J) 8a-/	8F\J) 8A-\	.	.
=12	=12	=12	=12	=12
4.b-\	8e-/ 8g/	8E-\ 8G\	4.ryy	4.ryy
.	8r	8r	.	.
.	8B-/L 8g/	8E-\L	.	.
8cc\	16r	16r	8ryy	8ryy
.	16B-/Jk 16g/	16E-\Jk	.	.
8dd\L	8B-/ 8g/	8EE-/	8ryy	8ryy
8ee-\J	8r	8r	8ryy	8ryy
=13	=13	=13	=13	=13
4ee-\	4r	4r	4ryy	4ryy
8g/	8e-/L 8g/	8c\L	8ryy	8ryy
8r	16r	16r	8ryy	8ryy
.	16e-/Jk 16g/	16c\Jk	.	.
8a-/L	8e-/L 8a-/ 8ee-/	8C/L	8ryy	8ryy
8g/J	8e-/J 8g/	8BB-/J	8ryy	8ryy
=14	=14	=14	=14	=14
8f/L	8c/ 8f/	8AA-/	8ryy	8ryy
8a-/J	8r	8r	8ryy	8ryy
4cc\	8c/L 8f/	8A-\L	4ryy	4ryy
.	16r	16r	.	.
.	16c/Jk 16f/	16AA-\Jk 16A-\	.	.
4cc\	8c/ 8e-/ 8f/ 8cc/	4AA\ 4A\	4ryy	4ryy
.	8r	.	.	.
=15	=15	=15	=15	=15
4f/	8d/ 8f/	8BB-\ 8B-\	4ryy	4ryy
.	8r	8r	.	.
4.b-\	8f/L 8b-/	8D\L 8B-\	4.ryy	4.ryy
.	16r	16r	.	.
.	16f/Jk 16b-/	16D\Jk 16B-\	.	.
.	8g/ 8b-/	8E-\ 8B-\	.	.
8cc\	8r	8r	8ryy	8ryy
*-	*-	*-	*-	*-
